app/assets/icons/share-nodes.svg

<?xml version="1.0" encoding="utf-8"?>
<!-- Generator: Adobe Illustrator 25.0.0, SVG Export Plug-In . SVG Version: 6.00 Build 0)  -->
<svg version="1.1" id="Layer_1" xmlns="http://www.w3.org/2000/svg" xmlns:xlink="http://www.w3.org/1999/xlink" x="0px" y="0px"
	 viewBox="0 0 448 512" style="enable-background:new 0 0 448 512;" xml:space="preserve">
<style type="text/css">
	.st0{fill:#FC80FF;}
	.st1{fill:#00FFFF;}
	.st2{fill:#707BFC;}
	.st3{fill:#333333;}
</style>
<g id="Layer_2_1_">
	<circle class="st0" cx="369" cy="112" r="80"/>
	<circle class="st1" cx="368" cy="400" r="80"/>
	<circle class="st2" cx="79.1" cy="256" r="80"/>
</g>
<g id="Layer_1_1_">
	<path class="st3" d="M448,112c0,44.2-35.8,80-80,80c-25.9,0-48.9-12.3-63.5-31.3l-147.4,73.7c1,6.9,2,14.1,2,21.6s-1,14.7-2,21.6
		l147.4,73.7c14.6-19,37.6-31.3,63.5-31.3c44.2,0,80,35.8,80,80s-35.8,80-80,80s-80-35.8-80-80c0-12.6,2.9-24.5,8.1-35.9
		l-144.9-71.6C137.9,318.3,111,336,80,336c-44.2,0-80-35.8-80-80s35.8-80,80-80c31,0,57.9,17.7,71.2,43.5L296.1,147
		c-5.2-10.6-8.1-22.4-8.1-35c0-44.2,35.8-80,80-80S448,67.8,448,112L448,112z M79.1,320c36.2,0,64-28.7,64-64s-27.8-64-64-64
		c-34.4,0-64,28.7-64,64S44.7,320,79.1,320z M368,48c-35.3,0-64,28.7-64,64s28.7,64,64,64s64-28.7,64-64S403.3,48,368,48z M368,464
		c35.3,0,64-28.7,64-64s-28.7-64-64-64s-64,28.7-64,64S332.7,464,368,464z"/>
</g>
</svg>

<svg xmlns="http://www.w3.org/2000/svg" viewBox="0 0 448 512"><!--! Font Awesome Pro 6.0.0 by @fontawesome - https://fontawesome.com License - https://fontawesome.com/license (Commercial License) Copyright 2022 Fonticons, Inc. --><path d="M448 112C448 156.2 412.2 192 368 192C342.1 192 319.1 179.7 304.5 160.7L157.1 234.4C158.1 241.3 159.1 248.5 159.1 256C159.1 263.5 158.1 270.7 157.1 277.6L304.5 351.3C319.1 332.3 342.1 320 368 320C412.2 320 448 355.8 448 400C448 444.2 412.2 480 368 480C323.8 480 288 444.2 288 400C288 387.4 290.9 375.5 296.1 364.1L151.2 292.5C137.9 318.3 111 336 80 336C35.82 336 0 300.2 0 256C0 211.8 35.82 176 80 176C111 176 137.9 193.7 151.2 219.5L296.1 147C290.9 136.4 288 124.6 288 112C288 67.82 323.8 32 368 32C412.2 32 448 67.82 448 112L448 112zM79.1 320C115.3 320 143.1 291.3 143.1 256C143.1 220.7 115.3 192 79.1 192C44.65 192 15.1 220.7 15.1 256C15.1 291.3 44.65 320 79.1 320zM368 48C332.7 48 304 76.65 304 112C304 147.3 332.7 176 368 176C403.3 176 432 147.3 432 112C432 76.65 403.3 48 368 48zM368 464C403.3 464 432 435.3 432 400C432 364.7 403.3 336 368 336C332.7 336 304 364.7 304 400C304 435.3 332.7 464 368 464z"/></svg>
